X:1
T:Title
%%score 1 { 2 | 3 }
L:1/8
Q:1/4=84
M:2/4
K:C
V:1 treble nm="Grand Piano, Soprano"
V:2 treble nm="Choir Pad, Bass"
V:3 bass 
V:1
 [EG][EG] [EG][EG] | [EG][FA] [EG][EG] | [Ec][DB] [Ec][Fd] | [DB] [Ec]3 | [EG][EG] [EG][EG] | %5
w: By~The~Diadem * * *|||||
 [EG][FA] [EG][EG] | [Ec][GB] [GB][Ac] | [^FA] G3 | [GB][Fd] [FB][EG] | [DF][CE] [EG]2 | %10
w: |||||
 [Ec][Ec] [Ec][DB] | [Ec] [Fd]3 | [Fd][Ge] [EG][Ec] | [GB][GB] [FA]2 | [Ec][GB] [Bd][df] | %15
w: |||||
 [GB][Fd] [Ec]2 | [GB][FA] [FA][Ac] | [FA][FA] [EG][Ec] | [Ge][Fd] [Fd][Ec] | [DB] [Ec]3- | %20
w: |||||
 [Ec]4 |] %21
w: |
V:2
 CC CC | CC CC | G,G, G,G, | G, G,3 | CC CC | CC CC | G,G, B,D | C B,3 | DB, DC | G,[K:bass]G, C2 | %10
 G,G, G,G, | C B,3 | DC CC | CC C2 | C[K:bass]G, G,G, | G,G, G,2 | CC CC | CC C[K:bass]G, | %18
 CA, A,G, | G, G,3- | G,4 |] %21
V:3
 C,C, C,C, | C,C, C,C, | .C,2 z2 | z C,3 | C,C, C,C, | C,C, C,C, | C,D, D,D, | D, G,3 | %8
 G,G, G,[G,,G,] | G,,C, C,2 | C,C, C,C, | C, G,3 | G,C, C,C, | C,F, F,2 | .C,2 z2 | z C, C,2 | %16
 E,F, F,F, | F,C, C,C, | C,F, .F,2 | z C,3- | C,4 |] %21

